assets/images/Live/tent.svg

<svg width="38" height="30" viewBox="0 0 38 30" fill="none" xmlns="http://www.w3.org/2000/svg">
<path d="M28.1413 0.600098V4.45305L37.792 28.2804V29.416H0.599976V28.2804L10.2506 4.45312V0.600098H12.0233V3.73943H26.3686V0.600098H28.1413ZM10.2506 9.17522L2.77054 27.6434H10.2506V9.17522ZM12.0233 9.17522V27.6434H19.5034L12.0233 9.17522ZM26.6576 5.51212H12.4523L21.416 27.6433H35.6213L26.6576 5.51212Z" fill="#2F70B6"/>
</svg>

<svg xmlns="http://www.w3.org/2000/svg" width="38" height="30" fill="none" viewBox="0 0 38 30"><path fill="#2F70B6" d="M28.141.6v3.853l9.651 23.827v1.136H.6V28.28l9.65-23.827V.6h1.773v3.14H26.37V.6h1.772zm-17.89 8.575L2.77 27.643h7.48V9.175zm1.772 0v18.468h7.48l-7.48-18.468zm14.635-3.663H12.452l8.964 22.131h14.205l-8.963-22.13z"/></svg>
